TGraph/RX.svg

<svg xmlns="http://www.w3.org/2000/svg" viewBox="0 0 1200 800" preserveAspectRatio="none" width="1200" height="800">
 <path d="M0,0H1200V800H0Z" style="fill: white;"></path>
 <g>
  <g transform="translate(120,80)">
   <path d="M0,0H960V640H0Z" style="fill: white; stroke: black; stroke-width: 1;"></path>
   <svg x="0" y="0" overflow="hidden" width="960" height="640" viewBox="0 0 960 640">
    <g>
     <path d="M960,587l-46,-65l-46,-62l-46,-60l-46,-57l-46,-53l-46,-49l-46,-44l-45,-38l-46,-34l-46,-27l-46,-21l-46,-14l-46,-8l-46,-2l-46,6l-46,11l-46,19l-46,24l-46,31" style="stroke: red; stroke-width: 4; fill: none;"></path>
    </g>
   </svg>
   <g>
    <g transform="translate(0,640)">
     <path d="M0,0h960M960,-24v24m-23,-12v12m-23,-12v12m-23,-12v12m-23,-24v24m-23,-12v12m-23,-12v12m-23,-12v12m-23,-24v24m-23,-12v12m-23,-12v12m-23,-12v12m-23,-24v24m-23,-12v12m-23,-12v12m-22,-12v12m-23,-24v24m-23,-12v12m-23,-12v12m-23,-12v12m-23,-24v24m-23,-12v12m-23,-12v12m-23,-12v12m-23,-24v24m-23,-12v12m-23,-12v12m-23,-12v12m-23,-24v24m-23,-12v12m-23,-12v12m-23,-12v12m-23,-24v24m-23,-12v12m-23,-12v12m-23,-12v12m-23,-24v24m-23,-12v12m-23,-12v12m-23,-12v12m-23,-24v24m-23,-12v12" style="stroke: black; stroke-width: 1;"></path>
     <g font-family="Arial" font-size="28" space="preserve" fill="black" text-anchor="middle">
      <text dy=".8em" transform="translate(960,6)">
       0
      </text>
      <text dy=".8em" transform="translate(868,6)">
       0.2
      </text>
      <text dy=".8em" transform="translate(776,6)">
       0.4
      </text>
      <text dy=".8em" transform="translate(684,6)">
       0.6
      </text>
      <text dy=".8em" transform="translate(593,6)">
       0.8
      </text>
      <text dy=".8em" transform="translate(501,6)">
       1
      </text>
      <text dy=".8em" transform="translate(409,6)">
       1.2
      </text>
      <text dy=".8em" transform="translate(317,6)">
       1.4
      </text>
      <text dy=".8em" transform="translate(225,6)">
       1.6
      </text>
      <text dy=".8em" transform="translate(133,6)">
       1.8
      </text>
      <text dy=".8em" transform="translate(41,6)">
       2
      </text>
     </g>
    </g>
    <g>
     <path d="M0,0v640M18,639h-18m18,-13h-18m18,-14h-18m18,-13h-18m36,-13h-36m18,-14h-18m18,-13h-18m18,-13h-18m18,-13h-18m36,-14h-36m18,-13h-18m18,-13h-18m18,-14h-18m18,-13h-18m36,-13h-36m18,-14h-18m18,-13h-18m18,-13h-18m18,-14h-18m36,-13h-36m18,-13h-18m18,-14h-18m18,-13h-18m18,-13h-18m36,-14h-36m18,-13h-18m18,-13h-18m18,-14h-18m18,-13h-18m36,-13h-36m18,-13h-18m18,-14h-18m18,-13h-18m18,-13h-18m36,-14h-36m18,-13h-18m18,-13h-18m18,-14h-18m18,-13h-18m36,-13h-36m18,-14h-18m18,-13h-18m18,-13h-18m18,-14h-18m36,-13h-36m18,-13h-18m18,-14h-18m18,-13h-18" style="stroke: black; stroke-width: 1;"></path>
     <g font-family="Arial" font-size="28" space="preserve" fill="black" text-anchor="end">
      <text dy=".4em" transform="translate(-4,586)">
       2
      </text>
      <text dy=".4em" transform="translate(-4,519)">
       3
      </text>
      <text dy=".4em" transform="translate(-4,453)">
       4
      </text>
      <text dy=".4em" transform="translate(-4,386)">
       5
      </text>
      <text dy=".4em" transform="translate(-4,319)">
       6
      </text>
      <text dy=".4em" transform="translate(-4,253)">
       7
      </text>
      <text dy=".4em" transform="translate(-4,186)">
       8
      </text>
      <text dy=".4em" transform="translate(-4,120)">
       9
      </text>
      <text dy=".4em" transform="translate(-4,53)">
       10
      </text>
     </g>
    </g>
   </g>
  </g>
  <g transform="translate(120,4)" font-family="Arial" font-size="40" space="preserve">
   <text fill="black" text-anchor="middle" dy=".8em" transform="translate(480)">
    Option ACP example
   </text>
  </g>
 </g>
</svg>

<svg xmlns="http://www.w3.org/2000/svg" viewBox="0 0 1200 800" preserveAspectRatio="none" width="1200" height="800">
 <path d="M0,0H1200V800H0Z" style="fill: white;"></path>
 <g>
  <g transform="translate(120,80)">
   <path d="M0,0H960V640H0Z" style="fill: white; stroke: black; stroke-width: 1;"></path>
   <svg x="0" y="0" overflow="hidden" width="960" height="640" viewBox="0 0 960 640">
    <g>
     <path d="M960,587l-46,-65l-46,-62l-46,-60l-46,-57l-46,-53l-46,-49l-46,-44l-45,-38l-46,-34l-46,-27l-46,-21l-46,-14l-46,-8l-46,-2l-46,6l-46,11l-46,19l-46,24l-46,31" style="stroke: red; stroke-width: 4; fill: none;"></path>
    </g>
   </svg>
   <g>
    <g transform="translate(0,640)">
     <path d="M0,0h960M960,-24V0M937,-12V0M914,-12V0M891,-12V0M868,-24V0M845,-12V0M822,-12V0M799,-12V0M776,-24V0M753,-12V0M730,-12V0M707,-12V0M684,-24V0M661,-12V0M638,-12V0M616,-12V0M593,-24V0M570,-12V0M547,-12V0M524,-12V0M501,-24V0M478,-12V0M455,-12V0M432,-12V0M409,-24V0M386,-12V0M363,-12V0M340,-12V0M317,-24V0M294,-12V0M271,-12V0M248,-12V0M225,-24V0M202,-12V0M179,-12V0M156,-12V0M133,-24V0M110,-12V0M87,-12V0M64,-12V0M41,-24V0M18,-12V0" style="stroke: black; stroke-width: 1;"></path>
     <g font-family="Arial" font-size="28" space="preserve" fill="black" text-anchor="middle">
      <text dy=".8em" transform="translate(960,6)">
       0
      </text>
      <text dy=".8em" transform="translate(868,6)">
       0.2
      </text>
      <text dy=".8em" transform="translate(776,6)">
       0.4
      </text>
      <text dy=".8em" transform="translate(684,6)">
       0.6
      </text>
      <text dy=".8em" transform="translate(593,6)">
       0.8
      </text>
      <text dy=".8em" transform="translate(501,6)">
       1
      </text>
      <text dy=".8em" transform="translate(409,6)">
       1.2
      </text>
      <text dy=".8em" transform="translate(317,6)">
       1.4
      </text>
      <text dy=".8em" transform="translate(225,6)">
       1.6
      </text>
      <text dy=".8em" transform="translate(133,6)">
       1.8
      </text>
      <text dy=".8em" transform="translate(41,6)">
       2
      </text>
     </g>
    </g>
    <g>
     <path d="M0,0v640M18,639H0M18,626H0M18,612H0M18,599H0M36,586H0M18,572H0M18,559H0M18,546H0M18,533H0M36,519H0M18,506H0M18,493H0M18,479H0M18,466H0M36,453H0M18,439H0M18,426H0M18,413H0M18,399H0M36,386H0M18,373H0M18,359H0M18,346H0M18,333H0M36,319H0M18,306H0M18,293H0M18,279H0M18,266H0M36,253H0M18,240H0M18,226H0M18,213H0M18,200H0M36,186H0M18,173H0M18,160H0M18,146H0M18,133H0M36,120H0M18,106H0M18,93H0M18,80H0M18,66H0M36,53H0M18,40H0M18,26H0M18,13H0" style="stroke: black; stroke-width: 1;"></path>
     <g font-family="Arial" font-size="28" space="preserve" fill="black" text-anchor="end">
      <text dy=".4em" transform="translate(-4,586)">
       2
      </text>
      <text dy=".4em" transform="translate(-4,519)">
       3
      </text>
      <text dy=".4em" transform="translate(-4,453)">
       4
      </text>
      <text dy=".4em" transform="translate(-4,386)">
       5
      </text>
      <text dy=".4em" transform="translate(-4,319)">
       6
      </text>
      <text dy=".4em" transform="translate(-4,253)">
       7
      </text>
      <text dy=".4em" transform="translate(-4,186)">
       8
      </text>
      <text dy=".4em" transform="translate(-4,120)">
       9
      </text>
      <text dy=".4em" transform="translate(-4,53)">
       10
      </text>
     </g>
    </g>
   </g>
  </g>
  <g transform="translate(120,4)" font-family="Arial" font-size="40" space="preserve">
   <text fill="black" text-anchor="middle" dy=".8em" transform="translate(480)">
    Option ACP example
   </text>
  </g>
 </g>
</svg>
